X:63
%%etbk:tnset id:22,pos:1,rep:3x,ant:
%%etbk:color #e6ffe6
%%etbk:pldat 2016-09-11T16:08,2016-07-21T18:35,2016-07-15T16:34,2016-07-09T14:14,2016-06-13T17:08,2016-05-24T16:28,2015-12-01T17:20,2015-11-28T16:45,2015-08-09T16:53,2015-01-25T17:34,2015-01-21T18:04,2015-01-07T17:36,2014-12-29T17:39,2014-12-20T14:19,2014-12-16T16:23,2014-12-03T17:32,2014-12-02T17:04,2014-11-26T16:42,2014-11-22T15:03,2014-11-15T15:46,2014-10-03T16:06,2014-09-22T18:12,2014-09-16T18:02,2014-09-13T16:20,2014-09-10T17:23,2014-09-08T18:17,2014-06-09T15:50,2014-06-07T15:50,2014-05-28T17:04,2014-05-19T18:43,2014-05-12T19:02,2014-05-08T18:45,2014-04-27T14:53,2014-04-08T18:38,2014-04-07T18:57,2014-04-02T17:02,2013-11-26T17:07,2013-11-16T14:42,2013-11-13T15:39
T: Beare Island
S: Martin Hayes
Z: Piano Box Version by Martin Fleischmann
H: Created 2013-02-19 /  Last Modified 2016-05-24
M: 4/4
L: 1/8
R: reel
K: Edor
|: "E"!1!E!4!B!2!^GB !3!AG!1!E!3!c | "A"!4!dBcA "E"!2!B!5!ee!3!c | "D"!4!d2 !5!f!4!d !1!A!3!F!1!D!3!F | "em"!4!GEFD !2!E!1!D!2!B,!1!A,| 
"em"!1!B,!2!E!2!EF !4!!1!G3A | !3!BAGA !3!B!1!def | !4!g2fg !2!egfe |1 "bm"!1!d!2!B!1!A!2!F "em"!1!E3E:|2 "bm"!1!d!2!B!1!A!2!F "em"!1!E3 !2!A||
|:"em"!3!B!5!e!2!ef !4!gef!1!d | "D"!2!Bd!1!A!3!G !2!F!1!D!2!F!3!A | "em"!1!B!2!e!2!ef !4!gef!1!d | "bm"!1!B!2!e!1!d!3!f "em"!2!e4 | 
"em"!2!e!1!d!2!Bc !4!d!3!d!4!dc | "D"!2!BcdB !1!A!2!F!1!D!2!F | "em"!1!G!2!BBB !1!A!3!F!1!D!3!F |1 "bm"!4!GE!3!FD "em"!2!!1!E3!2!A:|2 "bm"!4!GE!3!FD "em"!2!E3!1!E||


